icons/svg/special_poi/colosseum.svg

<?xml version="1.0" encoding="UTF-8" standalone="no"?>
<!-- Created with Inkscape (http://www.inkscape.org/) -->

<svg
   xmlns:dc="http://purl.org/dc/elements/1.1/"
   xmlns:cc="http://creativecommons.org/ns#"
   xmlns:rdf="http://www.w3.org/1999/02/22-rdf-syntax-ns#"
   xmlns:svg="http://www.w3.org/2000/svg"
   xmlns="http://www.w3.org/2000/svg"
   xmlns:sodipodi="http://sodipodi.sourceforge.net/DTD/sodipodi-0.dtd"
   xmlns:inkscape="http://www.inkscape.org/namespaces/inkscape"
   version="1.0"
   width="580"
   height="580"
   id="svg2"
   sodipodi:version="0.32"
   inkscape:version="0.48.4 r9939"
   sodipodi:docname="chichen_itza.svg"
   inkscape:output_extension="org.inkscape.output.svg.inkscape">
  <metadata
     id="metadata2975">
    <rdf:RDF>
      <cc:Work
         rdf:about="">
        <dc:format>image/svg+xml</dc:format>
        <dc:type
           rdf:resource="http://purl.org/dc/dcmitype/StillImage" />
        <cc:license
           rdf:resource="http://web.resource.org/cc/PublicDomain" />
        <dc:language>en</dc:language>
        <dc:title></dc:title>
      </cc:Work>
    </rdf:RDF>
  </metadata>
  <sodipodi:namedview
     inkscape:window-height="995"
     inkscape:window-width="1280"
     inkscape:pageshadow="2"
     inkscape:pageopacity="0.0"
     guidetolerance="10.0"
     gridtolerance="10.0"
     objecttolerance="10.0"
     borderopacity="1.0"
     bordercolor="#666666"
     pagecolor="#ffffff"
     id="base"
     inkscape:zoom="0.46083856"
     inkscape:cx="447.17446"
     inkscape:cy="429.58033"
     inkscape:window-x="0"
     inkscape:window-y="0"
     inkscape:current-layer="svg2"
     showgrid="false"
     inkscape:window-maximized="1" />
  <defs
     id="defs4">
    <inkscape:perspective
       sodipodi:type="inkscape:persp3d"
       inkscape:vp_x="0 : 290 : 1"
       inkscape:vp_y="0 : 1000 : 0"
       inkscape:vp_z="580 : 290 : 1"
       inkscape:persp3d-origin="290 : 193.33333 : 1"
       id="perspective2441" />
    <inkscape:perspective
       id="perspective3452"
       inkscape:persp3d-origin="30 : 20 : 1"
       inkscape:vp_z="60 : 30 : 1"
       inkscape:vp_y="0 : 1000 : 0"
       inkscape:vp_x="0 : 30 : 1"
       sodipodi:type="inkscape:persp3d" />
  </defs>
  <g
     id="g1327">
    <path
       d="M 66.275,1.768 C 24.94,1.768 1.704,23.139 1.704,66.804 L 1.704,516.927 C 1.704,557.771 22.599,579.156 63.896,579.156 L 515.92,579.156 C 557.227,579.156 578.149,558.841 578.149,516.927 L 578.149,66.804 C 578.149,24.203 557.227,1.768 514.628,1.768 C 514.624,1.768 66.133,1.625 66.275,1.768 z "
       style="fill:#111;stroke:#eee;stroke-width:3.40799999"
       id="path1329" />
  </g>
  <path
     d="m 372.89757,240.47635 -24.2627,-22.24081 c 0,0 -32.35028,-14.15325 -58.63487,-14.15325 0,-8.08757 -38.41594,-99.07271 -72.78811,-99.07271 C 51.416731,102.98769 47.372947,222.27931 47.372947,222.27931 l 0,250.71462 h 40.437842 c 0,-16.17513 0,-30.32837 0,-30.32837 0,-12.13136 2.021897,-24.26271 10.109473,-26.2846 8.087558,-2.02189 10.109448,6.06568 10.109448,18.19703 0,2.0219 0,18.19703 0,38.41594 h 40.43784 c 0,-16.17513 0,-32.35027 0,-34.37216 0,-18.19703 14.15324,-34.37217 30.32838,-36.39406 16.17514,-2.02188 30.32839,14.15325 30.32839,34.37218 0,2.02188 0,20.21891 0,36.39404 h 40.43784 c 0,-20.21891 0,-36.39404 0,-40.43784 0,-22.24081 18.19703,-40.43783 40.43784,-40.43783 22.24081,0 40.43784,18.19702 40.43784,40.43783 0,4.0438 0,20.21893 0,40.43784 h 40.43784 c 0,-18.19702 0,-34.37216 0,-36.39404 0,-18.19704 14.15325,-32.35029 30.32839,-32.35029 16.17513,0 30.32838,16.17514 30.32838,36.39406 0,2.0219 0,18.19703 0,34.37217 h 40.43784 c 0,-18.19703 0,-36.39406 0,-38.41594 0,-12.13137 4.04378,-22.24082 12.13135,-20.21893 8.08757,2.02189 8.08757,14.15324 8.08757,26.2846 0,2.02189 0,14.15324 0,30.32837 h 40.43784 c 0,0 0,-119.29163 0,-135.46676 0,-18.19703 -2.0219,-84.91947 -159.72948,-97.05082 z M 108.02971,363.81176 c -10.109448,2.0219 -16.175137,6.06568 -20.218921,8.08757 0,-24.26271 0,-48.52541 0,-50.5473 0,-12.13135 4.043784,-24.2627 12.131353,-26.2846 8.087568,-2.02189 8.087568,6.06568 8.087568,20.21893 0,0 0,24.2627 0,48.5254 z m 0,-115.24784 c -6.06567,2.02189 -16.175137,8.08756 -20.218921,10.10946 0,-24.2627 0,-48.52541 0,-50.54731 0,-12.13135 4.043784,-24.2627 12.131353,-26.28459 8.087568,-2.02189 8.087568,4.04379 8.087568,18.19703 0,2.02188 0,24.2627 0,48.52541 z M 209.12432,353.7023 c -22.24082,2.02189 -42.45973,2.02189 -60.65677,4.04379 0,-18.19703 0,-38.41595 0,-40.43784 0,-18.19703 14.15324,-34.37216 30.32838,-36.39406 16.17514,-2.0219 30.32839,14.15324 30.32839,34.37217 0,2.02189 0,20.21892 0,38.41594 z m 0,-125.3573 c -22.24082,2.02188 -42.45973,4.04378 -60.65677,8.08756 0,-18.19702 0,-38.41594 0,-40.43784 0,-18.19702 14.15324,-36.39406 30.32838,-36.39406 16.17514,-4.04378 30.32839,10.10947 30.32839,28.30649 0,4.04379 0,20.21892 0,40.43785 z m 121.31352,123.33542 c -14.15325,0 -26.2846,0 -40.43784,0 -14.15324,0 -26.2846,0 -40.43784,0 0,-20.21893 0,-38.41596 0,-40.43785 0,-22.24081 18.19703,-40.43785 40.43784,-40.43785 22.24081,0 40.43784,18.19704 40.43784,40.43785 0,4.04379 0,20.21892 0,40.43785 z m 101.09461,6.06567 c -18.19704,-2.0219 -38.41595,-4.04379 -60.65677,-4.04379 0,-18.19702 0,-36.39405 0,-38.41594 0,-18.19703 14.15325,-32.35027 30.32839,-32.35027 16.17513,0 30.32838,16.17513 30.32838,36.39405 0,2.02189 0,20.21892 0,38.41595 z m 60.65676,12.13135 c -4.04379,-2.02189 -14.15324,-6.06568 -20.21892,-8.08757 0,-24.2627 0,-46.50351 0,-48.52541 0,-12.13135 2.02188,-22.2408 10.10945,-20.21892 8.08757,2.02189 10.10947,14.15325 10.10947,26.2846 0,4.04378 0,28.30648 0,50.5473 z"
     id="path3"
     inkscape:connector-curvature="0"
     style="fill:#ffffff;fill-opacity:1" />
</svg>

<svg width="580" height="580" viewBox="0 0 580 580" fill="none" xmlns="http://www.w3.org/2000/svg">
<g clip-path="url(#clip0)">
<path d="M66.275 1.76799C24.94 1.76799 1.70398 23.139 1.70398 66.804V516.927C1.70398 557.771 22.599 579.156 63.896 579.156H515.92C557.227 579.156 578.149 558.841 578.149 516.927V66.804C578.149 24.203 557.227 1.76799 514.628 1.76799C514.624 1.76799 66.133 1.62499 66.275 1.76799Z" fill="#111111" stroke="#EEEEEE" stroke-width="3.408"/>
<path d="M372.898 240.476L348.635 218.236C348.635 218.236 316.285 204.082 290 204.082C290 195.995 251.584 105.01 217.212 105.01C51.4167 102.988 47.3729 222.279 47.3729 222.279V472.994H87.8108C87.8108 456.819 87.8108 442.666 87.8108 442.666C87.8108 430.534 89.8327 418.403 97.9202 416.381C106.008 414.359 108.03 422.447 108.03 434.578C108.03 436.6 108.03 452.775 108.03 472.994H148.468C148.468 456.819 148.468 440.644 148.468 438.622C148.468 420.425 162.621 404.25 178.796 402.228C194.971 400.206 209.124 416.381 209.124 436.6C209.124 438.622 209.124 456.819 209.124 472.994H249.562C249.562 452.775 249.562 436.6 249.562 432.556C249.562 410.315 267.759 392.118 290 392.118C312.241 392.118 330.438 410.315 330.438 432.556C330.438 436.6 330.438 452.775 330.438 472.994H370.876C370.876 454.797 370.876 438.622 370.876 436.6C370.876 418.403 385.029 404.25 401.204 404.25C417.379 404.25 431.532 420.425 431.532 440.644C431.532 442.666 431.532 458.841 431.532 475.016H471.97C471.97 456.819 471.97 438.622 471.97 436.6C471.97 424.469 476.014 414.359 484.102 416.381C492.189 418.403 492.189 430.534 492.189 442.666C492.189 444.687 492.189 456.819 492.189 472.994H532.627C532.627 472.994 532.627 353.702 532.627 337.527C532.627 319.33 530.605 252.608 372.898 240.476V240.476ZM108.03 363.812C97.9202 365.834 91.8546 369.877 87.8108 371.899C87.8108 347.637 87.8108 323.374 87.8108 321.352C87.8108 309.221 91.8545 297.089 99.9421 295.067C108.03 293.046 108.03 301.133 108.03 315.286C108.03 315.286 108.03 339.549 108.03 363.812V363.812ZM108.03 248.564C101.964 250.586 91.8546 256.652 87.8108 258.673C87.8108 234.411 87.8108 210.148 87.8108 208.126C87.8108 195.995 91.8545 183.863 99.9421 181.841C108.03 179.82 108.03 185.885 108.03 200.039C108.03 202.06 108.03 224.301 108.03 248.564V248.564ZM209.124 353.702C186.883 355.724 166.665 355.724 148.468 357.746C148.468 339.549 148.468 319.33 148.468 317.308C148.468 299.111 162.621 282.936 178.796 280.914C194.971 278.892 209.124 295.067 209.124 315.286C209.124 317.308 209.124 335.505 209.124 353.702V353.702ZM209.124 228.345C186.883 230.367 166.665 232.389 148.468 236.433C148.468 218.236 148.468 198.017 148.468 195.995C148.468 177.798 162.621 159.601 178.796 159.601C194.971 155.557 209.124 169.71 209.124 187.907C209.124 191.951 209.124 208.126 209.124 228.345ZM330.438 351.68C316.285 351.68 304.153 351.68 290 351.68C275.847 351.68 263.715 351.68 249.562 351.68C249.562 331.462 249.562 313.265 249.562 311.243C249.562 289.002 267.759 270.805 290 270.805C312.241 270.805 330.438 289.002 330.438 311.243C330.438 315.286 330.438 331.462 330.438 351.68V351.68ZM431.532 357.746C413.335 355.724 393.116 353.702 370.876 353.702C370.876 335.505 370.876 317.308 370.876 315.286C370.876 297.089 385.029 282.936 401.204 282.936C417.379 282.936 431.532 299.111 431.532 319.33C431.532 321.352 431.532 339.549 431.532 357.746ZM492.189 369.877C488.145 367.856 478.036 363.812 471.97 361.79C471.97 337.527 471.97 315.286 471.97 313.264C471.97 301.133 473.992 291.024 482.08 293.046C490.167 295.067 492.189 307.199 492.189 319.33C492.189 323.374 492.189 347.637 492.189 369.877V369.877Z" fill="white"/>
</g>
<defs>
<clipPath id="clip0">
<path d="M0 0H580V580H0V0Z" fill="white"/>
</clipPath>
</defs>
</svg>
